assets/1. 1-F/Children crossing/Color/Children.Crossing-color.svg

<svg width="100%" height="100%" viewBox="0 0 32 32" fill="none" xmlns="http://www.w3.org/2000/svg">
<g filter="url(#filter0_iii_18590_544)">
<path d="M29.1223 15.09L16.7623 2.73C16.1223 2.09 15.0823 2.09 14.4423 2.73L2.08229 15.09C1.44229 15.73 1.44229 16.77 2.08229 17.41L14.4423 29.77C15.0823 30.41 16.1223 30.41 16.7623 29.77L29.1223 17.41C29.7623 16.77 29.7623 15.73 29.1223 15.09Z" fill="url(#paint0_linear_18590_544)"/>
</g>
<g filter="url(#filter1_f_18590_544)">
<path d="M22.2923 15.68L19.7623 14.11C20.3123 13.75 20.6723 13.13 20.6723 12.43C20.6723 11.32 19.7723 10.42 18.6623 10.42C17.5523 10.42 16.6523 11.32 16.6523 12.43C16.6523 13.13 17.0023 13.74 17.5423 14.1L14.9723 15.61L13.4623 15.01C13.9323 14.64 14.2323 14.07 14.2323 13.43C14.2323 12.32 13.3323 11.42 12.2223 11.42C11.1123 11.42 10.2123 12.32 10.2123 13.43C10.2123 14.13 10.5723 14.75 11.1223 15.11L8.94233 16.47C8.51233 16.71 8.38233 17.25 8.64233 17.65C8.80233 17.91 9.09233 18.06 9.37233 18.06C9.53233 18.06 9.68233 18.02 9.83233 17.93L10.8523 17.3L9.86233 20.2C9.71233 20.65 9.95233 21.14 10.4023 21.3C10.4923 21.33 10.5923 21.35 10.6823 21.35C11.0423 21.35 11.3723 21.12 11.5023 20.76L12.2123 18.68L12.9223 20.76C13.0423 21.12 13.3823 21.35 13.7423 21.35C13.8323 21.35 13.9323 21.34 14.0223 21.3C14.4723 21.15 14.7123 20.66 14.5623 20.2L13.4023 16.85L14.7023 17.37C14.7323 17.38 14.7623 17.39 14.7923 17.4C14.8023 17.4 14.8123 17.4 14.8123 17.41C14.8423 17.42 14.8623 17.42 14.8923 17.43C14.9023 17.43 14.9123 17.43 14.9123 17.43C14.9423 17.43 14.9823 17.44 15.0123 17.44C15.0423 17.44 15.0823 17.44 15.1123 17.43C15.1223 17.43 15.1223 17.43 15.1323 17.43C15.1623 17.43 15.1923 17.42 15.2223 17.41C15.2323 17.41 15.2323 17.41 15.2423 17.4C15.2723 17.39 15.3023 17.38 15.3323 17.37C15.3423 17.37 15.3423 17.37 15.3523 17.36C15.3823 17.35 15.4123 17.33 15.4423 17.31L17.4323 16.15L16.2723 20.24C16.1423 20.7 16.4123 21.18 16.8723 21.31C16.9523 21.33 17.0323 21.34 17.1123 21.34C17.4923 21.34 17.8323 21.09 17.9423 20.71L18.6423 18.24L19.3423 20.71C19.4523 21.09 19.7923 21.34 20.1723 21.34C20.2523 21.34 20.3323 21.33 20.4123 21.31C20.8723 21.18 21.1423 20.7 21.0123 20.24L19.8723 16.22L21.3723 17.15C21.5123 17.24 21.6723 17.28 21.8323 17.28C22.1223 17.28 22.4023 17.14 22.5623 16.87C22.8223 16.47 22.6923 15.94 22.2923 15.68Z" fill="#FFB056"/>
</g>
<g filter="url(#filter2_i_18590_544)">
<path d="M22.2923 15.68L19.7623 14.11C20.3123 13.75 20.6723 13.13 20.6723 12.43C20.6723 11.32 19.7723 10.42 18.6623 10.42C17.5523 10.42 16.6523 11.32 16.6523 12.43C16.6523 13.13 17.0023 13.74 17.5423 14.1L14.9723 15.61L13.4623 15.01C13.9323 14.64 14.2323 14.07 14.2323 13.43C14.2323 12.32 13.3323 11.42 12.2223 11.42C11.1123 11.42 10.2123 12.32 10.2123 13.43C10.2123 14.13 10.5723 14.75 11.1223 15.11L8.94233 16.47C8.51233 16.71 8.38233 17.25 8.64233 17.65C8.80233 17.91 9.09233 18.06 9.37233 18.06C9.53233 18.06 9.68233 18.02 9.83233 17.93L10.8523 17.3L9.86233 20.2C9.71233 20.65 9.95233 21.14 10.4023 21.3C10.4923 21.33 10.5923 21.35 10.6823 21.35C11.0423 21.35 11.3723 21.12 11.5023 20.76L12.2123 18.68L12.9223 20.76C13.0423 21.12 13.3823 21.35 13.7423 21.35C13.8323 21.35 13.9323 21.34 14.0223 21.3C14.4723 21.15 14.7123 20.66 14.5623 20.2L13.4023 16.85L14.7023 17.37C14.7323 17.38 14.7623 17.39 14.7923 17.4C14.8023 17.4 14.8123 17.4 14.8123 17.41C14.8423 17.42 14.8623 17.42 14.8923 17.43C14.9023 17.43 14.9123 17.43 14.9123 17.43C14.9423 17.43 14.9823 17.44 15.0123 17.44C15.0423 17.44 15.0823 17.44 15.1123 17.43C15.1223 17.43 15.1223 17.43 15.1323 17.43C15.1623 17.43 15.1923 17.42 15.2223 17.41C15.2323 17.41 15.2323 17.41 15.2423 17.4C15.2723 17.39 15.3023 17.38 15.3323 17.37C15.3423 17.37 15.3423 17.37 15.3523 17.36C15.3823 17.35 15.4123 17.33 15.4423 17.31L17.4323 16.15L16.2723 20.24C16.1423 20.7 16.4123 21.18 16.8723 21.31C16.9523 21.33 17.0323 21.34 17.1123 21.34C17.4923 21.34 17.8323 21.09 17.9423 20.71L18.6423 18.24L19.3423 20.71C19.4523 21.09 19.7923 21.34 20.1723 21.34C20.2523 21.34 20.3323 21.33 20.4123 21.31C20.8723 21.18 21.1423 20.7 21.0123 20.24L19.8723 16.22L21.3723 17.15C21.5123 17.24 21.6723 17.28 21.8323 17.28C22.1223 17.28 22.4023 17.14 22.5623 16.87C22.8223 16.47 22.6923 15.94 22.2923 15.68Z" fill="#4A4351"/>
</g>
<defs>
<filter id="filter0_iii_18590_544" x="1.00229" y="1.65" width="28.9" height="28.85" filterUnits="userSpaceOnUse" color-interpolation-filters="sRGB">
<feFlood flood-opacity="0" result="BackgroundImageFix"/>
<feBlend mode="normal" in="SourceGraphic" in2="BackgroundImageFix" result="shape"/>
<feColorMatrix in="SourceAlpha" type="matrix" values="0 0 0 0 0 0 0 0 0 0 0 0 0 0 0 0 0 0 127 0" result="hardAlpha"/>
<feOffset dx="-0.8" dy="0.25"/>
<feGaussianBlur stdDeviation="0.3"/>
<feComposite in2="hardAlpha" operator="arithmetic" k2="-1" k3="1"/>
<feColorMatrix type="matrix" values="0 0 0 0 1 0 0 0 0 0.996078 0 0 0 0 0.458824 0 0 0 1 0"/>
<feBlend mode="normal" in2="shape" result="effect1_innerShadow_18590_544"/>
<feColorMatrix in="SourceAlpha" type="matrix" values="0 0 0 0 0 0 0 0 0 0 0 0 0 0 0 0 0 0 127 0" result="hardAlpha"/>
<feOffset dx="0.3"/>
<feGaussianBlur stdDeviation="0.3"/>
<feComposite in2="hardAlpha" operator="arithmetic" k2="-1" k3="1"/>
<feColorMatrix type="matrix" values="0 0 0 0 0.737255 0 0 0 0 0.564706 0 0 0 0 0.239216 0 0 0 1 0"/>
<feBlend mode="normal" in2="effect1_innerShadow_18590_544" result="effect2_innerShadow_18590_544"/>
<feColorMatrix in="SourceAlpha" type="matrix" values="0 0 0 0 0 0 0 0 0 0 0 0 0 0 0 0 0 0 127 0" result="hardAlpha"/>
<feOffset dy="-0.6"/>
<feGaussianBlur stdDeviation="0.4"/>
<feComposite in2="hardAlpha" operator="arithmetic" k2="-1" k3="1"/>
<feColorMatrix type="matrix" values="0 0 0 0 0.929412 0 0 0 0 0.411765 0 0 0 0 0.313726 0 0 0 1 0"/>
<feBlend mode="normal" in2="effect2_innerShadow_18590_544" result="effect3_innerShadow_18590_544"/>
</filter>
<filter id="filter1_f_18590_544" x="7.50879" y="9.42004" width="16.1884" height="12.9301" filterUnits="userSpaceOnUse" color-interpolation-filters="sRGB">
<feFlood flood-opacity="0" result="BackgroundImageFix"/>
<feBlend mode="normal" in="SourceGraphic" in2="BackgroundImageFix" result="shape"/>
<feGaussianBlur stdDeviation="0.5" result="effect1_foregroundBlur_18590_544"/>
</filter>
<filter id="filter2_i_18590_544" x="7.75879" y="10.42" width="14.9384" height="11.6801" filterUnits="userSpaceOnUse" color-interpolation-filters="sRGB">
<feFlood flood-opacity="0" result="BackgroundImageFix"/>
<feBlend mode="normal" in="SourceGraphic" in2="BackgroundImageFix" result="shape"/>
<feColorMatrix in="SourceAlpha" type="matrix" values="0 0 0 0 0 0 0 0 0 0 0 0 0 0 0 0 0 0 127 0" result="hardAlpha"/>
<feOffset dx="-0.75" dy="0.75"/>
<feGaussianBlur stdDeviation="0.6"/>
<feComposite in2="hardAlpha" operator="arithmetic" k2="-1" k3="1"/>
<feColorMatrix type="matrix" values="0 0 0 0 0.180392 0 0 0 0 0.145098 0 0 0 0 0.223529 0 0 0 1 0"/>
<feBlend mode="normal" in2="shape" result="effect1_innerShadow_18590_544"/>
</filter>
<linearGradient id="paint0_linear_18590_544" x1="15.6023" y1="2.25" x2="15.6023" y2="19.25" gradientUnits="userSpaceOnUse">
<stop offset="0.169118" stop-color="#FFD958"/>
<stop offset="1" stop-color="#FFAD57"/>
</linearGradient>
</defs>
</svg>

<svg width="100%" height="100%" viewBox="0 0 32 32" xmlns="http://www.w3.org/2000/svg"><g filter="url(#a)"><path fill="url(#b)" d="M29.122 15.09 16.762 2.73c-.64-.64-1.68-.64-2.32 0L2.082 15.09c-.64.64-.64 1.68 0 2.32l12.36 12.36c.64.64 1.68.64 2.32 0l12.36-12.36c.64-.64.64-1.68 0-2.32"/></g><g filter="url(#c)"><path fill="#FFB056" d="m22.292 15.68-2.53-1.57a2.01 2.01 0 1 0-2.22-.01l-2.57 1.51-1.51-.6a2.01 2.01 0 1 0-2.34.1l-2.18 1.36a.83.83 0 0 0-.3 1.18c.16.26.45.41.73.41.16 0 .31-.04.46-.13l1.02-.63-.99 2.9a.876.876 0 0 0 .82 1.15c.36 0 .69-.23.82-.59l.71-2.08.71 2.08c.12.36.46.59.82.59.09 0 .19-.01.28-.05.45-.15.69-.64.54-1.1l-1.16-3.35 1.3.52.09.03c.01 0 .02 0 .02.01.03.01.05.01.08.02h.02c.03 0 .07.01.1.01s.07 0 .1-.01h.02c.03 0 .06-.01.09-.02.01 0 .01 0 .02-.01l.09-.03c.01 0 .01 0 .02-.01.03-.01.06-.03.09-.05l1.99-1.16-1.16 4.09c-.13.46.14.94.6 1.07q.12.03.24.03c.38 0 .72-.25.83-.63l.7-2.47.7 2.47c.11.38.45.63.83.63q.12 0 .24-.03c.46-.13.73-.61.6-1.07l-1.14-4.02 1.5.93c.14.09.3.13.46.13.29 0 .57-.14.73-.41.26-.4.13-.93-.27-1.19"/></g><g filter="url(#d)"><path fill="#4A4351" d="m22.292 15.68-2.53-1.57a2.01 2.01 0 1 0-2.22-.01l-2.57 1.51-1.51-.6a2.01 2.01 0 1 0-2.34.1l-2.18 1.36a.83.83 0 0 0-.3 1.18c.16.26.45.41.73.41.16 0 .31-.04.46-.13l1.02-.63-.99 2.9a.876.876 0 0 0 .82 1.15c.36 0 .69-.23.82-.59l.71-2.08.71 2.08c.12.36.46.59.82.59.09 0 .19-.01.28-.05.45-.15.69-.64.54-1.1l-1.16-3.35 1.3.52.09.03c.01 0 .02 0 .02.01.03.01.05.01.08.02h.02c.03 0 .07.01.1.01s.07 0 .1-.01h.02c.03 0 .06-.01.09-.02.01 0 .01 0 .02-.01l.09-.03c.01 0 .01 0 .02-.01.03-.01.06-.03.09-.05l1.99-1.16-1.16 4.09c-.13.46.14.94.6 1.07q.12.03.24.03c.38 0 .72-.25.83-.63l.7-2.47.7 2.47c.11.38.45.63.83.63q.12 0 .24-.03c.46-.13.73-.61.6-1.07l-1.14-4.02 1.5.93c.14.09.3.13.46.13.29 0 .57-.14.73-.41.26-.4.13-.93-.27-1.19"/></g><defs><filter id="a" width="28.9" height="28.85" x="1.002" y="1.65" color-interpolation-filters="sRGB" filterUnits="userSpaceOnUse"><feFlood flood-opacity="0" result="BackgroundImageFix"/><feBlend in="SourceGraphic" in2="BackgroundImageFix" result="shape"/><feColorMatrix in="SourceAlpha" result="hardAlpha" values="0 0 0 0 0 0 0 0 0 0 0 0 0 0 0 0 0 0 127 0"/><feOffset dx="-.8" dy=".25"/><feGaussianBlur stdDeviation=".3"/><feComposite in2="hardAlpha" k2="-1" k3="1" operator="arithmetic"/><feColorMatrix values="0 0 0 0 1 0 0 0 0 0.996078 0 0 0 0 0.458824 0 0 0 1 0"/><feBlend in2="shape" result="effect1_innerShadow_18590_544"/><feColorMatrix in="SourceAlpha" result="hardAlpha" values="0 0 0 0 0 0 0 0 0 0 0 0 0 0 0 0 0 0 127 0"/><feOffset dx=".3"/><feGaussianBlur stdDeviation=".3"/><feComposite in2="hardAlpha" k2="-1" k3="1" operator="arithmetic"/><feColorMatrix values="0 0 0 0 0.737255 0 0 0 0 0.564706 0 0 0 0 0.239216 0 0 0 1 0"/><feBlend in2="effect1_innerShadow_18590_544" result="effect2_innerShadow_18590_544"/><feColorMatrix in="SourceAlpha" result="hardAlpha" values="0 0 0 0 0 0 0 0 0 0 0 0 0 0 0 0 0 0 127 0"/><feOffset dy="-.6"/><feGaussianBlur stdDeviation=".4"/><feComposite in2="hardAlpha" k2="-1" k3="1" operator="arithmetic"/><feColorMatrix values="0 0 0 0 0.929412 0 0 0 0 0.411765 0 0 0 0 0.313726 0 0 0 1 0"/><feBlend in2="effect2_innerShadow_18590_544" result="effect3_innerShadow_18590_544"/></filter><filter id="c" width="16.188" height="12.93" x="7.509" y="9.42" color-interpolation-filters="sRGB" filterUnits="userSpaceOnUse"><feFlood flood-opacity="0" result="BackgroundImageFix"/><feBlend in="SourceGraphic" in2="BackgroundImageFix" result="shape"/><feGaussianBlur result="effect1_foregroundBlur_18590_544" stdDeviation=".5"/></filter><filter id="d" width="14.938" height="11.68" x="7.759" y="10.42" color-interpolation-filters="sRGB" filterUnits="userSpaceOnUse"><feFlood flood-opacity="0" result="BackgroundImageFix"/><feBlend in="SourceGraphic" in2="BackgroundImageFix" result="shape"/><feColorMatrix in="SourceAlpha" result="hardAlpha" values="0 0 0 0 0 0 0 0 0 0 0 0 0 0 0 0 0 0 127 0"/><feOffset dx="-.75" dy=".75"/><feGaussianBlur stdDeviation=".6"/><feComposite in2="hardAlpha" k2="-1" k3="1" operator="arithmetic"/><feColorMatrix values="0 0 0 0 0.180392 0 0 0 0 0.145098 0 0 0 0 0.223529 0 0 0 1 0"/><feBlend in2="shape" result="effect1_innerShadow_18590_544"/></filter><linearGradient id="b" x1="15.602" x2="15.602" y1="2.25" y2="19.25" gradientUnits="userSpaceOnUse"><stop offset=".169" stop-color="#FFD958"/><stop offset="1" stop-color="#FFAD57"/></linearGradient></defs></svg>
